src/calendar.svg

<?xml version="1.0" encoding="utf-8"?>
<!-- Generated by IcoMoon.io -->
<!DOCTYPE svg PUBLIC "-//W3C//DTD SVG 1.1//EN" "http://www.w3.org/Graphics/SVG/1.1/DTD/svg11.dtd">
<svg version="1.1" xmlns="http://www.w3.org/2000/svg" xmlns:xlink="http://www.w3.org/1999/xlink" width="512" height="512" viewBox="0 0 512 512">
<path fill="#000000" d="M144 128c17.7 0 32-14.3 32-32v-32c0-17.7-14.3-32-32-32s-32 14.3-32 32v32c0 17.7 14.3 32 32 32z"></path>
<path fill="#000000" d="M368 128c17.7 0 32-14.3 32-32v-32c0-17.7-14.3-32-32-32s-32 14.3-32 32v32c0 17.7 14.3 32 32 32z"></path>
<path fill="#000000" d="M472 64h-56v40.7c0 22.5-23.2 39.3-47.2 39.3s-48.8-16.8-48.8-39.3v-40.7h-128v40.7c0 22.5-24 39.3-48 39.3s-48-16.8-48-39.3v-40.7h-56c-4.4 0-8 3.6-8 8v400c0 4.4 3.6 8 8 8h432c4.4 0 8-3.6 8-8v-400c0-4.4-3.6-8-8-8zM432 432h-352v-256h352v256z"></path>
</svg>

<?xml version="1.0" encoding="utf-8"?>
<!-- Generator: Adobe Illustrator 16.2.1, SVG Export Plug-In . SVG Version: 6.00 Build 0)  -->
<!DOCTYPE svg PUBLIC "-//W3C//DTD SVG 1.1//EN" "http://www.w3.org/Graphics/SVG/1.1/DTD/svg11.dtd">
<svg version="1.1" id="Layer_1" xmlns="http://www.w3.org/2000/svg" xmlns:xlink="http://www.w3.org/1999/xlink" x="0px" y="0px"
	 width="512px" height="512px" viewBox="0 0 512 512" style="enable-background:new 0 0 512 512;" xml:space="preserve">
<g>
	<path d="M144,128c17.7,0,32-14.3,32-32V64c0-17.7-14.3-32-32-32s-32,14.3-32,32v32C112,113.7,126.3,128,144,128z"/>
	<path d="M368,128c17.7,0,32-14.3,32-32V64c0-17.7-14.3-32-32-32s-32,14.3-32,32v32C336,113.7,350.3,128,368,128z"/>
	<path d="M472,64h-56v40.7c0,22.5-23.2,39.3-47.2,39.3S320,127.2,320,104.7V64H192v40.7c0,22.5-24,39.3-48,39.3s-48-16.8-48-39.3V64
		H40c-4.4,0-8,3.6-8,8v400c0,4.4,3.6,8,8,8h432c4.4,0,8-3.6,8-8V72C480,67.6,476.4,64,472,64z M432,432H80V176h352V432z"/>
</g>
</svg>
